austria/municipalities/60646.svg

<?xml version="1.0" encoding="UTF-8" standalone="no"?>
<!-- Created with Inkscape (http://www.inkscape.org/) -->

<svg
   xml:space="preserve"
   id="svg11947"
   version="1.1"
   viewBox="0 0 31.75 38.099998"
   width="31.75mm"
   height="38.099998mm"
   sodipodi:docname="AUT_Stattegg_COA.svg"
   inkscape:version="1.2 (dc2aeda, 2022-05-15)"
   xmlns:inkscape="http://www.inkscape.org/namespaces/inkscape"
   xmlns:sodipodi="http://sodipodi.sourceforge.net/DTD/sodipodi-0.dtd"
   xmlns="http://www.w3.org/2000/svg"
   xmlns:svg="http://www.w3.org/2000/svg"><sodipodi:namedview
     id="namedview14182"
     pagecolor="#ffffff"
     bordercolor="#000000"
     borderopacity="0.25"
     inkscape:showpageshadow="2"
     inkscape:pageopacity="0.0"
     inkscape:pagecheckerboard="0"
     inkscape:deskcolor="#d1d1d1"
     inkscape:document-units="mm"
     showgrid="false"
     inkscape:zoom="5.8819447"
     inkscape:cx="66.304602"
     inkscape:cy="74.125145"
     inkscape:window-width="1677"
     inkscape:window-height="1178"
     inkscape:window-x="2332"
     inkscape:window-y="112"
     inkscape:window-maximized="0"
     inkscape:current-layer="svg11947" /><defs
     id="defs11944" /><path
     d="M 0,0 V 22.225 C 0,30.9925 7.107502,38.1 15.875,38.1 24.6425,38.1 31.75,30.9925 31.75,22.225 V 0 Z"
     id="path11658"
     style="stroke-width:0.264583" /><path
     id="rect11660"
     style="fill:#078930;fill-opacity:1;stroke-width:0.268391"
     d="M 0.52916667 0.52916667 L 0.52916667 19.314583 L 0.52916667 22.225 C 0.52916667 29.153107 5.1216444 35.008188 11.427726 36.915059 L 11.427726 0.52916667 L 0.52916667 0.52916667 z M 20.322274 0.52916667 L 20.322274 36.915059 C 26.628355 35.008188 31.220833 29.153107 31.220833 22.225 L 31.220833 19.314583 L 31.220833 0.52916667 L 20.322274 0.52916667 z M 11.956893 0.79271647 L 11.956893 36.765715 C 13.208672 37.102424 14.516353 37.306767 15.875 37.306767 C 17.233647 37.306767 18.541328 37.102424 19.793107 36.765715 L 19.793107 0.79271647 L 11.956893 0.79271647 z " /><path
     style="color:#000000;fill:#ffffff;stroke-width:0.529167;stroke-linejoin:round;stroke-miterlimit:24;-inkscape-stroke:none;paint-order:markers stroke fill"
     d="M 11.691793,0.52916667 V 36.993091 c 1.329935,0.376025 2.732941,0.577742 4.183207,0.577742 1.450266,0 2.853272,-0.201717 4.183207,-0.577742 V 0.52916667 Z"
     id="path16224" /></svg>

<svg xml:space="preserve" viewBox="0 0 31.75 38.1" width="120" height="144" xmlns="http://www.w3.org/2000/svg"><path d="M0 0v22.225C0 30.992 7.108 38.1 15.875 38.1S31.75 30.992 31.75 22.225V0z" style="stroke-width:.264583"/><path style="fill:#078930;fill-opacity:1;stroke-width:.268391" d="M.53.53v21.695c0 6.928 4.592 12.783 10.898 14.69V.53H.529zm19.792 0v36.385c6.306-1.907 10.899-7.762 10.899-14.69V.529H20.322zm-8.365.263v35.973c1.252.336 2.56.54 3.918.54 1.359 0 2.666-.204 3.918-.54V.793h-7.836z"/><path style="color:#000;fill:#fff;stroke-width:.529167;stroke-linejoin:round;stroke-miterlimit:24;-inkscape-stroke:none;paint-order:markers stroke fill" d="M11.692.53v36.463c1.33.376 2.733.578 4.183.578 1.45 0 2.853-.202 4.183-.578V.53z"/></svg>
